icons-rebrand/svg/application-panel-bold.svg

<svg width="32" height="32" viewBox="0 0 32 32" fill="none" xmlns="http://www.w3.org/2000/svg">
<path d="M25 5.01003H7C5.6744 5.01162 4.40356 5.53892 3.46622 6.47625C2.52888 7.41359 2.00159 8.68444 2 10.01V21.989C2.00159 23.3146 2.52888 24.5855 3.46622 25.5228C4.40356 26.4601 5.6744 26.9874 7 26.989H25C26.3256 26.9874 27.5964 26.4601 28.5338 25.5228C29.4711 24.5855 29.9984 23.3146 30 21.989V10.009C29.9984 8.68344 29.4711 7.41259 28.5338 6.47525C27.5964 5.53792 26.3256 5.01062 25 5.00903V5.01003ZM4 21.988V10.008C4.00079 9.21263 4.31712 8.45003 4.87956 7.88759C5.44199 7.32515 6.20459 7.00883 7 7.00803H13V24.988H7C6.20459 24.9872 5.44199 24.6709 4.87956 24.1085C4.31712 23.546 4.00079 22.7834 4 21.988ZM28 21.988C27.9989 22.7834 27.6825 23.5458 27.1202 24.1082C26.5578 24.6706 25.7953 24.987 25 24.988H15V7.00903H25C25.7954 7.00983 26.558 7.32615 27.1204 7.88859C27.6829 8.45103 27.9992 9.21363 28 10.009V21.989V21.988Z" fill="#0F0F0F"/>
<path d="M6.99512 13H10.0021C10.2673 13 10.5217 12.8946 10.7092 12.7071C10.8968 12.5196 11.0021 12.2652 11.0021 12C11.0021 11.7348 10.8968 11.4804 10.7092 11.2929C10.5217 11.1054 10.2673 11 10.0021 11H6.99512C6.7299 11 6.47555 11.1054 6.28801 11.2929C6.10047 11.4804 5.99512 11.7348 5.99512 12C5.99512 12.2652 6.10047 12.5196 6.28801 12.7071C6.47555 12.8946 6.7299 13 6.99512 13ZM10.0021 15H6.99512C6.7299 15 6.47555 15.1054 6.28801 15.2929C6.10047 15.4804 5.99512 15.7348 5.99512 16C5.99512 16.2652 6.10047 16.5196 6.28801 16.7071C6.47555 16.8946 6.7299 17 6.99512 17H10.0021C10.2673 17 10.5217 16.8946 10.7092 16.7071C10.8968 16.5196 11.0021 16.2652 11.0021 16C11.0021 15.7348 10.8968 15.4804 10.7092 15.2929C10.5217 15.1054 10.2673 15 10.0021 15ZM10.0021 19H6.99512C6.7299 19 6.47555 19.1054 6.28801 19.2929C6.10047 19.4804 5.99512 19.7348 5.99512 20C5.99512 20.2652 6.10047 20.5196 6.28801 20.7071C6.47555 20.8946 6.7299 21 6.99512 21H10.0021C10.2673 21 10.5217 20.8946 10.7092 20.7071C10.8968 20.5196 11.0021 20.2652 11.0021 20C11.0021 19.7348 10.8968 19.4804 10.7092 19.2929C10.5217 19.1054 10.2673 19 10.0021 19Z" fill="#0F0F0F"/>
</svg>

<svg width="32" height="32" viewBox="0 0 32 32" fill="none" xmlns="http://www.w3.org/2000/svg"><path d="M25 5.01H7a5.006 5.006 0 0 0-5 5v11.979a5.006 5.006 0 0 0 5 5h18a5.006 5.006 0 0 0 5-5v-11.98a5.006 5.006 0 0 0-5-5zM4 21.988v-11.98a3.003 3.003 0 0 1 3-3H13v17.98H7a3.003 3.003 0 0 1-3-3zm24 0a3.004 3.004 0 0 1-3 3H15V7.009H25a3.003 3.003 0 0 1 3 3v11.98z" fill="#0F0F0F"/><path d="M6.995 13h3.007a1 1 0 1 0 0-2H6.995a1 1 0 0 0 0 2zM10.002 15H6.995a1 1 0 0 0 0 2h3.007a1 1 0 1 0 0-2zM10.002 19H6.995a1 1 0 0 0 0 2h3.007a1 1 0 1 0 0-2z" fill="#0F0F0F"/></svg>
